cloudphone-mobile/media/svg/media-bustop.svg

<svg xmlns="http://www.w3.org/2000/svg" xmlns:xlink="http://www.w3.org/1999/xlink" preserveAspectRatio="xMidYMid" width="132" height="100" viewBox="0 0 132 100">
  <defs>
    <style>
      .cls-1 {
        stroke: #c0c9d3;
        stroke-linecap: round;
        stroke-linejoin: round;
        stroke-width: 2px;
        fill: none;
        fill-rule: evenodd;
      }
    </style>
  </defs>
  <g>
    <path d="M10.000,74.000 C5.006,74.000 2.000,74.000 2.000,74.000 L2.000,10.000 L130.000,10.000 L130.000,74.000 C130.000,74.000 71.266,74.000 34.000,74.000 " class="cls-1"/>
    <path d="M115.066,14.000 C120.619,14.000 122.000,14.000 122.000,14.000 C124.209,14.000 126.000,15.791 126.000,18.000 L126.000,66.000 C126.000,68.209 124.209,70.000 122.000,70.000 C122.000,70.000 61.924,70.000 31.977,70.000 M12.000,70.000 C11.452,70.000 10.000,70.000 10.000,70.000 C7.791,70.000 6.000,68.209 6.000,66.000 L6.000,18.000 C6.000,15.791 7.791,14.000 10.000,14.000 C10.000,14.000 15.392,14.000 20.962,14.000 " class="cls-1"/>
    <path d="M2.000,2.000 L130.000,2.000 " class="cls-1"/>
    <path d="M42.000,2.000 L42.000,14.000 " class="cls-1"/>
    <path d="M66.000,2.000 L66.000,14.000 " class="cls-1"/>
    <path d="M90.000,2.000 L90.000,14.000 " class="cls-1"/>
    <path d="M94.000,14.000 L86.000,14.000 " class="cls-1"/>
    <path d="M70.000,14.000 L62.000,14.000 " class="cls-1"/>
    <path d="M46.000,14.000 L38.000,14.000 " class="cls-1"/>
    <path d="M11.000,19.000 L11.000,19.000 " class="cls-1"/>
    <path d="M11.000,65.000 L11.000,65.000 " class="cls-1"/>
    <path d="M121.000,19.000 L121.000,19.000 " class="cls-1"/>
    <path d="M121.000,65.000 L121.000,65.000 " class="cls-1"/>
    <path d="M42.000,74.000 L42.000,98.000 " class="cls-1"/>
    <path d="M50.000,74.000 L50.000,98.000 " class="cls-1"/>
    <path d="M82.000,74.000 L82.000,98.000 " class="cls-1"/>
    <path d="M90.000,74.000 L90.000,98.000 " class="cls-1"/>
    <path d="M2.000,98.000 L130.000,98.000 " class="cls-1"/>
    <path d="M22.000,80.000 L22.000,98.000 " class="cls-1"/>
    <path d="M22.000,61.000 C22.000,61.000 32.000,77.477 32.000,83.000 C32.000,88.523 27.523,93.000 22.000,93.000 C16.477,93.000 12.000,88.523 12.000,83.000 C12.000,77.477 22.000,61.000 22.000,61.000 Z" class="cls-1"/>
  </g>
</svg>

<svg xmlns="http://www.w3.org/2000/svg" preserveAspectRatio="xMidYMid" width="132" height="100" viewBox="0 0 132 100"><defs><style>.cls-1{stroke:#c0c9d3;stroke-linecap:round;stroke-linejoin:round;stroke-width:2px;fill:none;fill-rule:evenodd}</style></defs><path d="M10 74H2V10h128v64H34" class="cls-1"/><path d="M115.066 14H122a4 4 0 0 1 4 4v48a4 4 0 0 1-4 4H31.977M12 70h-2a4 4 0 0 1-4-4V18a4 4 0 0 1 4-4h10.962M2 2h128M42 2v12M66 2v12M90 2v12M94 14h-8M70 14h-8M46 14h-8M42 74v24M50 74v24M82 74v24M90 74v24M2 98h128M22 80v18M22 61s10 16.477 10 22-4.477 10-10 10-10-4.477-10-10 10-22 10-22z" class="cls-1"/></svg>
